svg/black/krb.svg

<svg xmlns="http://www.w3.org/2000/svg" width="32" height="32" viewBox="0 0 32 32">
  <path d="M16,32 C7.163444,32 0,24.836556 0,16 C0,7.163444 7.163444,0 16,0 C24.836556,0 32,7.163444 32,16 C32,24.836556 24.836556,32 16,32 Z M15.7608696,14.7064901 L15.7608696,10.4156346 L13.7721739,10.4156346 L13.7721739,14.7376849 L12.3095652,14.7376849 L12.3095652,6 L9.5,6 L9.5,26 L12.3095652,26 L12.3095652,16.8673721 L13.7721739,16.8673721 L13.7721739,20.6130346 L15.7608696,20.6130346 L15.7608696,16.8831126 C16.0871014,16.9040045 16.3605797,16.9871429 16.5763768,17.1273763 C16.7921739,17.2676097 16.992029,17.5012843 17.1762319,17.8285432 L20.7381159,25.1792054 C21.0484058,25.7246847 21.4589855,26 21.9692754,26 L24.5,26 L20.1542029,17.3245616 C19.8647826,16.8157147 19.5543478,16.4207717 19.2281159,16.1401618 C18.8966667,15.8545436 18.4915942,15.6519207 18.0075362,15.5272847 C18.317971,15.4182461 18.602029,15.2571208 18.8598551,15.044195 C19.1124638,14.8312692 19.3386957,14.5559538 19.5386957,14.2182489 L24.0527536,6 L21.7536232,6 C21.4905797,6 21.2537681,6.0728355 21.053913,6.21306889 C20.853913,6.35859681 20.6801449,6.54547926 20.5382609,6.77929697 L16.9130435,13.7662109 C16.75,14.0778725 16.5762319,14.3063956 16.3921739,14.4414776 C16.2081159,14.5765596 15.9976812,14.6648494 15.7608696,14.7064901 Z"/>
</svg>

<svg xmlns="http://www.w3.org/2000/svg" width="32" height="32"><path d="M16 32C7.163 32 0 24.837 0 16S7.163 0 16 0s16 7.163 16 16-7.163 16-16 16zm-.24-17.294v-4.29h-1.988v4.322H12.31V6H9.5v20h2.81v-9.133h1.462v3.746h1.989v-3.73c.326.021.6.104.815.244.216.14.416.374.6.702l3.562 7.35c.31.546.721.821 1.231.821H24.5l-4.346-8.675c-.29-.51-.6-.904-.926-1.185a2.965 2.965 0 0 0-1.22-.613c.31-.109.594-.27.852-.483.252-.213.479-.488.679-.826L24.053 6h-2.3c-.262 0-.5.073-.7.213-.2.146-.373.332-.515.566l-3.625 6.987c-.163.312-.337.54-.52.675a1.486 1.486 0 0 1-.632.265z"/></svg>
